svg/blobs-icons/no-decorations/butterfly.svg

<svg xmlns="http://www.w3.org/2000/svg" xmlns:xlink="http://www.w3.org/1999/xlink" preserveAspectRatio="xMidYMid" width="217" height="217" viewBox="0 0 217 217"><defs><style>.cls-3{fill:#ff3a2f}.cls-4{fill:#020403;opacity:.35}.cls-6{fill:#142a3b}.cls-8{fill:#ededed}</style></defs><g id="group-164svg"><path d="M172.56 16.825c-22.459-22.458-58.873-22.458-81.332.0C74.614 33.44 70.327 57.682 78.294 78.272 57.705 70.305 33.464 74.594 16.85 91.207c-22.459 22.459-22.459 58.874.0 81.332 17.149 17.151 42.416 21.162 63.412 12.122C82.029 191.83 85.665 198.632 91.266 204.233c16.361 16.362 42.888 16.362 59.248.0 12.067-12.066 15.204-29.653 9.471-44.623C174.955 165.341 192.542 162.205 204.608 150.139c16.361-16.361 16.361-42.89.0-59.25C198.962 85.243 192.096 81.593 184.864 79.843 193.679 58.927 189.599 33.866 172.56 16.825z" id="path-1" class="cls-3" fill-rule="evenodd"/><path d="M150.514 183.621c-16.36 16.361-42.887 16.36-59.248.0C85.665 178.02 82.029 171.217 80.263 164.049 59.266 173.088 33.998 169.078 16.85 151.928 8.254 143.331 2.976 132.687.96 121.568c-3.251 17.933 2.027 37.11 15.89 50.971C33.998 189.69 59.266 193.7 80.263 184.661 82.029 191.829 85.665 198.632 91.266 204.233c16.361 16.362 42.888 16.362 59.248.0 10.835-10.834 14.408-26.108 10.887-39.953C159.619 171.358 156.053 178.081 150.514 183.621z" id="path-2" class="cls-4" fill-rule="evenodd"/><path d="M204.608 129.527c-12.066 12.065-29.653 15.202-44.622 9.471C162.594 145.809 163.27 153.151 162.2 160.281 176.668 164.919 193.126 161.622 204.608 150.139c10.825-10.828 14.442-26.094 10.941-39.933C213.76 117.282 210.144 123.99 204.608 129.527z" id="path-3" class="cls-4" fill-rule="evenodd"/><path d="M78.291 81.887C77.495 81.887 76.696 81.625 76.028 81.089 47.308 57.992 53.932 8.739 54.226 6.652 54.507 4.676 56.333 3.309 58.312 3.582c1.975.279 3.35 2.107 3.073 4.085C61.318 8.137 55.057 54.947 80.557 75.456 82.114 76.706 82.361 78.981 81.11 80.537 80.395 81.426 79.348 81.887 78.291 81.887z" id="path-4" class="cls-6" fill-rule="evenodd"/><path d="M79.758 80.424C78.701 80.424 77.654 79.961 76.939 79.073 56.394 53.521 9.62 59.829 9.154 59.9 7.179 60.188 5.348 58.806 5.066 56.829c-.28-1.979 1.095-3.809 3.071-4.088C10.227 52.446 59.48 45.82 82.573 74.545 83.825 76.099 83.577 78.375 82.02 79.626 81.353 80.162 80.553 80.424 79.758 80.424z" id="path-5" class="cls-6" fill-rule="evenodd"/><path d="M136.511 51.267C132.545 47.301 126.115 47.301 122.15 51.267 118.184 55.233 118.184 61.663 122.15 65.628 126.115 69.594 132.545 69.594 136.511 65.628c3.965-3.965 3.965-10.395.0-14.361z" id="path-6" class="cls-8" fill-rule="evenodd"/><path d="M63.636 124.143c-3.965-3.964-10.395-3.964-14.36.0-3.966 3.965-3.966 10.397.0 14.361C53.241 142.47 59.671 142.47 63.636 138.504c3.966-3.964 3.966-10.396.0-14.361z" id="path-7" class="cls-8" fill-rule="evenodd"/></g></svg>

<svg xmlns="http://www.w3.org/2000/svg" xmlns:xlink="http://www.w3.org/1999/xlink" preserveAspectRatio="xMidYMid" width="217" height="217" viewBox="0 0 217 217">
  <defs>
    <style>

      .cls-3 {
        fill: #ff3a2f;
      }

      .cls-4 {
        fill: #020403;
        opacity: 0.35;
      }

      .cls-6 {
        fill: #142a3b;
      }

      .cls-8 {
        fill: #ededed;
      }
    </style>
  </defs>
  <g id="group-164svg">
    <path d="M172.560,16.825 C150.101,-5.633 113.687,-5.633 91.228,16.825 C74.614,33.440 70.327,57.682 78.294,78.272 C57.705,70.305 33.464,74.594 16.850,91.207 C-5.609,113.666 -5.609,150.081 16.850,172.539 C33.999,189.690 59.266,193.701 80.262,184.661 C82.029,191.830 85.665,198.632 91.266,204.233 C107.627,220.595 134.154,220.595 150.514,204.233 C162.581,192.167 165.718,174.580 159.985,159.610 C174.955,165.341 192.542,162.205 204.608,150.139 C220.969,133.778 220.969,107.249 204.608,90.889 C198.962,85.243 192.096,81.593 184.864,79.843 C193.679,58.927 189.599,33.866 172.560,16.825 Z" id="path-1" class="cls-3" fill-rule="evenodd"/>
    <path d="M150.514,183.621 C134.154,199.982 107.627,199.981 91.266,183.621 C85.665,178.020 82.029,171.217 80.263,164.049 C59.266,173.088 33.998,169.078 16.850,151.928 C8.254,143.331 2.976,132.687 0.960,121.568 C-2.291,139.501 2.987,158.678 16.850,172.539 C33.998,189.690 59.266,193.700 80.263,184.661 C82.029,191.829 85.665,198.632 91.266,204.233 C107.627,220.595 134.154,220.595 150.514,204.233 C161.349,193.399 164.922,178.125 161.401,164.280 C159.619,171.358 156.053,178.081 150.514,183.621 Z" id="path-2" class="cls-4" fill-rule="evenodd"/>
    <path d="M204.608,129.527 C192.542,141.592 174.955,144.729 159.986,138.998 C162.594,145.809 163.270,153.151 162.200,160.281 C176.668,164.919 193.126,161.622 204.608,150.139 C215.433,139.311 219.050,124.045 215.549,110.206 C213.760,117.282 210.144,123.990 204.608,129.527 Z" id="path-3" class="cls-4" fill-rule="evenodd"/>
    <path d="M78.291,81.887 C77.495,81.887 76.696,81.625 76.028,81.089 C47.308,57.992 53.932,8.739 54.226,6.652 C54.507,4.676 56.333,3.309 58.312,3.582 C60.287,3.861 61.662,5.689 61.385,7.667 C61.318,8.137 55.057,54.947 80.557,75.456 C82.114,76.706 82.361,78.981 81.110,80.537 C80.395,81.426 79.348,81.887 78.291,81.887 Z" id="path-4" class="cls-6" fill-rule="evenodd"/>
    <path d="M79.758,80.424 C78.701,80.424 77.654,79.961 76.939,79.073 C56.394,53.521 9.620,59.829 9.154,59.900 C7.179,60.188 5.348,58.806 5.066,56.829 C4.786,54.850 6.161,53.020 8.137,52.741 C10.227,52.446 59.480,45.820 82.573,74.545 C83.825,76.099 83.577,78.375 82.020,79.626 C81.353,80.162 80.553,80.424 79.758,80.424 Z" id="path-5" class="cls-6" fill-rule="evenodd"/>
    <path d="M136.511,51.267 C132.545,47.301 126.115,47.301 122.150,51.267 C118.184,55.233 118.184,61.663 122.150,65.628 C126.115,69.594 132.545,69.594 136.511,65.628 C140.476,61.663 140.476,55.233 136.511,51.267 Z" id="path-6" class="cls-8" fill-rule="evenodd"/>
    <path d="M63.636,124.143 C59.671,120.179 53.241,120.179 49.276,124.143 C45.310,128.108 45.310,134.540 49.276,138.504 C53.241,142.470 59.671,142.470 63.636,138.504 C67.602,134.540 67.602,128.108 63.636,124.143 Z" id="path-7" class="cls-8" fill-rule="evenodd"/>
  </g>
</svg>
